packages/foundations/assets/icons/functional/images/human/shower_men_20.svg

<svg width="20" height="20" viewBox="0 0 20 20" fill="none" xmlns="http://www.w3.org/2000/svg">
<g clip-path="url(#clip0_185_1181)">
<path fill-rule="evenodd" clip-rule="evenodd" d="M6.41684 6.75146C7.93521 6.75146 9.14521 7.9614 9.14515 9.47978C9.15495 10.9977 7.93469 12.2373 6.41684 12.2514C4.89051 12.2408 3.65578 11.0061 3.64521 9.47978C3.65939 7.96195 4.89897 6.74173 6.41684 6.75146ZM13.9763 10.0063C14.3798 9.91308 14.7825 10.1648 14.8758 10.5684C14.9691 10.9718 14.7176 11.3745 14.3141 11.4675C13.9106 11.5606 13.508 11.309 13.4147 10.9054C13.3214 10.5019 13.5728 10.0993 13.9763 10.0063ZM16.7677 9.60299C17.1256 9.39498 17.5848 9.51661 17.7933 9.87464C18.0016 10.2327 17.8804 10.6916 17.5227 10.8998C17.1648 11.1078 16.7058 10.9862 16.4973 10.6282C16.2888 10.27 16.4098 9.81101 16.7677 9.60299ZM10.4969 9.87232C10.7049 9.51457 11.1639 9.39339 11.5219 9.60187C11.8801 9.81035 12.0017 10.2694 11.7935 10.6272C11.5853 10.9851 11.1264 11.1063 10.7684 10.8978C10.4104 10.6893 10.2887 10.2302 10.4969 9.87232ZM13.9764 7.69753C14.3799 7.6045 14.7826 7.85623 14.8757 8.25964C14.9692 8.66322 14.7177 9.06578 14.3142 9.1588C13.9106 9.25201 13.508 9.00028 13.4147 8.5967C13.3213 8.19329 13.5728 7.79073 13.9764 7.69753ZM11.2468 7.62405C11.4548 7.26615 11.9139 7.14496 12.272 7.35344C12.63 7.56192 12.7516 8.02098 12.5436 8.37888C12.3354 8.73679 11.8765 8.8578 11.5184 8.64932C11.1604 8.44102 11.0388 7.98178 11.2468 7.62405ZM16.0177 7.35311C16.3756 7.14493 16.8347 7.26656 17.0432 7.62459C17.2517 7.98263 17.1305 8.44159 16.7727 8.64978C16.4148 8.85779 15.9557 8.73633 15.7473 8.37813C15.5388 8.02009 15.66 7.56113 16.0177 7.35311ZM14.1452 2.0014C14.658 2.0014 15.1451 2.43001 15.1451 3.0014V4.3254L15.5589 4.37623L16.5402 4.51197C17.0867 4.59206 17.4647 5.09997 17.3846 5.64642C17.3046 6.19286 16.7966 6.57092 16.2502 6.49083L14.9844 6.32088C14.7014 6.27456 14.4206 6.2514 14.1419 6.2514C13.8633 6.2514 13.5847 6.27456 13.3061 6.32088L12.0402 6.49083C11.4938 6.57092 10.9859 6.19286 10.9058 5.64642C10.8257 5.09997 11.2038 4.59206 11.7502 4.51197L12.7315 4.37623L13.1451 4.3274L13.1452 3.0014C13.1452 2.44912 13.5929 2.0014 14.1452 2.0014ZM9.17084 14.0013C10.3952 14.0013 10.8903 15.1862 10.5735 16.0332C10.4113 16.467 10.2469 16.9005 10.0804 17.3339C9.88455 17.8504 9.30712 18.1103 8.79064 17.9145C8.31106 17.7327 8.01706 17.1654 8.21005 16.6248C8.28651 16.4168 8.3649 16.209 8.44521 16.0014H4.33821L4.58165 16.6502C4.76175 17.1304 4.55695 17.7276 3.99641 17.9378C3.51617 18.1179 2.91324 17.8906 2.70878 17.3526C2.54106 16.9113 2.3755 16.4698 2.21207 16.0282C1.77569 14.8646 2.75603 14.0023 3.61667 14.0013C5.46781 13.999 7.3192 13.999 9.17084 14.0013Z" fill="#1A1C1F"/>
</g>
<defs>
<clipPath id="clip0_185_1181">
<rect width="20" height="20" fill="white"/>
</clipPath>
</defs>
</svg>

<svg xmlns="http://www.w3.org/2000/svg" width="20" height="20" fill="none"><g clip-path="url(#a)"><path fill="#1A1C1F" fill-rule="evenodd" d="M6.417 6.751A2.714 2.714 0 0 1 9.145 9.48a2.754 2.754 0 0 1-2.728 2.771A2.79 2.79 0 0 1 3.645 9.48 2.754 2.754 0 0 1 6.417 6.75m7.56 3.255a.75.75 0 1 1 .336 1.462.75.75 0 0 1-.337-1.462m2.79-.403a.75.75 0 1 1 .754 1.299.75.75 0 0 1-.753-1.299m-6.27.27a.75.75 0 1 1 1.295.753.75.75 0 0 1-1.295-.754m3.48-2.175a.75.75 0 1 1 .336 1.461.75.75 0 0 1-.337-1.462m-2.73-.074a.75.75 0 1 1 1.295.754.75.75 0 0 1-1.295-.754m4.77-.27a.75.75 0 1 1 .755 1.297.75.75 0 0 1-.754-1.298M14.146 2c.513 0 1 .429 1 1v1.324l.414.051.981.136a1 1 0 1 1-.29 1.979l-1.266-.17a5.088 5.088 0 0 0-1.678 0l-1.266.17a1 1 0 0 1-.29-1.98l.982-.135.413-.049V3.001a1 1 0 0 1 1-1m-4.974 12c1.224 0 1.72 1.185 1.402 2.032q-.243.65-.493 1.3a1 1 0 0 1-1.29.582 1.02 1.02 0 0 1-.58-1.29q.115-.312.235-.624H4.338l.244.65a.995.995 0 0 1-.586 1.287 1.01 1.01 0 0 1-1.287-.585q-.252-.662-.497-1.325c-.436-1.163.544-2.026 1.405-2.027q2.776-.003 5.554 0" clip-rule="evenodd"/></g><defs><clipPath id="a"><path fill="#fff" d="M0 0h20v20H0z"/></clipPath></defs></svg>
